;FLAVOR:Marlin
;TIME:5489
;Filament used: 3.01812m
;Layer height: 0.2
;MINX:10.038
;MINY:10.115
;MINZ:0.2
;MAXX:209.717
;MAXY:209.796
;MAXZ:4
;Generated with Cura_SteamEngine 4.9.1
M140 S70
M105
M190 S70
M104 S220
M105
M109 S220
M82 ;absolute extrusion mode
; Ender 3 Custom Start G-code
G92 E0 ; Reset Extruder
G28 ; Home all axes
G1 Z2.0 F3000 ; Move Z Axis up little to prevent scratching of Heat Bed
G1 X0.1 Y20 Z0.3 F5000.0 ; Move to start position
G1 X0.1 Y200.0 Z0.3 F1500.0 E15 ; Draw the first line
G1 X0.4 Y200.0 Z0.3 F5000.0 ; Move to side a little
G1 X0.4 Y20 Z0.3 F1500.0 E30 ; Draw the second line
G92 E0 ; Reset Extruder
G1 Z2.0 F3000 ; Move Z Axis up little to prevent scratching of Heat Bed
G1 X5 Y20 Z0.3 F5000.0 ; Move over to prevent blob squish
G92 E0
G92 E0
G1 F3000 E-6
;LAYER_COUNT:20
;LAYER:0
M107
;MESH:midpiece-promicro.stl
G0 F6000 X181.138 Y109.445 Z0.2
;TYPE:WALL-INNER
G1 F3000 E0
G1 F1200 X181.278 Y109.585 E0.00659
G1 X181.418 Y109.445 E0.01083
G1 X183.401 Y107.459 E0.10418
G1 X183.674 Y107.074 E0.11987
G1 X183.865 Y106.533 E0.13896
G1 X183.902 Y106.033 E0.15563
G1 X183.812 Y105.537 E0.1724
G1 X183.575 Y105.038 E0.19077
G1 X183.346 Y104.757 E0.20283
G1 X182.37 Y103.784 E0.24866
G1 X181.985 Y103.512 E0.26434
G1 X181.464 Y103.329 E0.28271
G1 X181.126 Y103.285 E0.29405
G1 X180.646 Y103.321 E0.31006
G1 X180.097 Y103.517 E0.32944
G1 X179.679 Y103.828 E0.34677
G1 X177.6 Y105.907 E0.44456
G1 X181.138 Y109.445 E0.61098
G0 F6000 X181.278 Y109.019
G1 F1200 X181.418 Y108.879 E0.61757
G1 X183.094 Y107.2 E0.69647
G1 X183.315 Y106.888 E0.70919
G1 X183.47 Y106.45 E0.72464
G1 X183.499 Y106.054 E0.73785
G1 X183.428 Y105.661 E0.75113
G1 X183.234 Y105.253 E0.76615
G1 X183.049 Y105.026 E0.77589
G1 X182.112 Y104.091 E0.81992
G1 X181.8 Y103.871 E0.83262
G1 X181.371 Y103.72 E0.84775
G1 X181.115 Y103.687 E0.85633
G1 X180.73 Y103.716 E0.86917
G1 X180.288 Y103.874 E0.88478
G1 X179.941 Y104.132 E0.89917
G1 X178.166 Y105.907 E0.98266
G1 X181.138 Y108.879 E1.12245
G1 X181.278 Y109.019 E1.1267
G0 F6000 X181.278 Y108.453
;TYPE:WALL-OUTER
G1 F1200 X182.787 Y106.942 E1.19772
G1 X182.956 Y106.702 E1.20748
G1 X183.075 Y106.367 E1.21931
G1 X183.096 Y106.075 E1.22905
G1 X183.044 Y105.784 E1.23888
G1 X182.894 Y105.469 E1.25048
G1 X182.752 Y105.295 E1.25795
G1 X181.854 Y104.398 E1.30017
G1 X181.615 Y104.23 E1.30988
G1 X181.278 Y104.111 E1.32177
G1 X181.105 Y104.089 E1.32757
G1 X180.814 Y104.111 E1.33728
G1 X180.479 Y104.231 E1.34911
G1 X180.203 Y104.436 E1.36055
G1 X178.732 Y105.907 E1.42974
G1 X181.278 Y108.453 E1.54949
G1 F3000 E-4.45051
G0 F6000 X181.63 Y108.806
G0 X181.278 Y109.059
G0 X178.126 Y105.907
G0 X179.46 Y102.412
G0 X179.484 Y101.936
G0 X179.398 Y101.541
G0 X179.027 Y100.949
G0 X105.366 Y27.289
G0 X105.045 Y27.063
G0 X104.598 Y26.902
G0 X104.159 Y26.882
G0 X100.455 Y27.939
;TYPE:WALL-INNER
G1 F3000 E1.54949
G1 F1200 X100.943 Y27.879 E1.56585
G1 X101.404 Y27.702 E1.58227
G1 X101.776 Y27.439 E1.59743
G1 X102.537 Y26.682 E1.63313
G1 X102.848 Y26.26 E1.65056
G1 X103.043 Y25.711 E1.66994
G1 X103.08 Y25.211 E1.68661
G1 X102.99 Y24.715 E1.70338
G1 X102.753 Y24.216 E1.72175
G1 X102.524 Y23.935 E1.73381
G1 X101.548 Y22.962 E1.77965
G1 X101.163 Y22.69 E1.79533
G1 X100.642 Y22.507 E1.81369
G1 X100.304 Y22.463 E1.82503
G1 X99.824 Y22.499 E1.84104
G1 X99.275 Y22.696 E1.86044
G1 X98.856 Y23.008 E1.87782
G1 X98.093 Y23.772 E1.91373
G1 X97.79 Y24.231 E1.93202
G1 X97.622 Y24.781 E1.95115
G1 X97.611 Y25.284 E1.96788
G1 X97.719 Y25.758 E1.98405
G1 X97.928 Y26.179 E1.99968
G1 X98.121 Y26.425 E2.01008
G1 X99.08 Y27.385 E2.05522
G1 X99.434 Y27.661 E2.07015
G1 X99.958 Y27.877 E2.089
G1 X100.455 Y27.939 E2.10566
G0 F6000 X100.455 Y27.536
G1 F1200 X100.846 Y27.488 E2.11876
G1 X101.214 Y27.347 E2.13186
G1 X101.517 Y27.132 E2.14422
G1 X102.233 Y26.42 E2.17781
G1 X102.491 Y26.07 E2.19227
G1 X102.648 Y25.628 E2.20787
G1 X102.677 Y25.232 E2.22108
G1 X102.606 Y24.839 E2.23436
G1 X102.412 Y24.431 E2.24938
G1 X102.227 Y24.204 E2.25912
G1 X101.29 Y23.269 E2.30315
G1 X100.978 Y23.049 E2.31585
G1 X100.549 Y22.898 E2.33098
G1 X100.293 Y22.865 E2.33956
G1 X99.908 Y22.894 E2.3524
G1 X99.466 Y23.052 E2.36801
G1 X99.119 Y23.311 E2.38242
G1 X98.405 Y24.026 E2.41602
G1 X98.156 Y24.403 E2.43105
G1 X98.021 Y24.845 E2.44642
G1 X98.012 Y25.244 E2.4597
G1 X98.098 Y25.623 E2.47262
G1 X98.268 Y25.964 E2.4853
G1 X98.421 Y26.159 E2.49354
G1 X99.346 Y27.085 E2.53707
G1 X99.637 Y27.312 E2.54935
G1 X100.061 Y27.487 E2.5646
G1 X100.455 Y27.536 E2.57781
G0 F6000 X100.455 Y27.133
;TYPE:WALL-OUTER
G1 F1200 X100.748 Y27.097 E2.58763
G1 X101.024 Y26.991 E2.59746
G1 X101.259 Y26.825 E2.60703
G1 X101.929 Y26.158 E2.63847
G1 X102.134 Y25.88 E2.64996
G1 X102.253 Y25.545 E2.66179
G1 X102.274 Y25.253 E2.67152
G1 X102.222 Y24.962 E2.68136
G1 X102.072 Y24.647 E2.69296
G1 X101.93 Y24.473 E2.70043
G1 X101.032 Y23.576 E2.74265
G1 X100.793 Y23.408 E2.75236
G1 X100.456 Y23.289 E2.76425
G1 X100.283 Y23.267 E2.77005
G1 X99.992 Y23.289 E2.77976
G1 X99.657 Y23.409 E2.79159
G1 X99.381 Y23.614 E2.80303
G1 X98.717 Y24.28 E2.83431
G1 X98.522 Y24.575 E2.84607
G1 X98.42 Y24.909 E2.85768
G1 X98.413 Y25.204 E2.8675
G1 X98.477 Y25.487 E2.87715
G1 X98.608 Y25.749 E2.88689
G1 X98.721 Y25.893 E2.89298
G1 X99.611 Y26.785 E2.93489
G1 X99.84 Y26.963 E2.94454
G1 X100.164 Y27.097 E2.9562
G1 X100.455 Y27.133 E2.96595
G0 F6000 X100.455 Y27.573
G1 F3000 E-3.03405
G0 F6000 X100.455 Y27.636
G0 X96.812 Y26.692
G0 X98.637 Y21.596
G0 X98.668 Y21.178
G0 X98.578 Y20.724
G0 X98.205 Y20.127
G0 X91.475 Y13.442
G0 X90.686 Y13.02
G0 X89.812 Y12.849
G0 X89.08 Y12.903
G0 X88.247 Y13.203
G0 X87.547 Y13.72
G0 X66.041 Y35.249
G0 X60.634 Y36.445
G0 X47.428 Y23.233
G0 X47.051 Y22.982
G0 X46.661 Y22.855
G0 X46.268 Y22.825
G0 X45.868 Y22.893
G0 X45.367 Y23.176
G0 X22.211 Y44.948
;TYPE:WALL-INNER
G1 F3000 E2.96595
G1 F1200 X22.52 Y44.719 E2.97874
G1 X44.597 Y22.642 E4.01718
G1 X44.867 Y22.297 E4.03175
G1 X45.066 Y21.846 E4.04814
G1 X45.14 Y21.408 E4.06292
G1 X45.15 Y21.354 E4.06474
G1 X45.093 Y20.78 E4.08393
G1 X44.877 Y20.254 E4.10284
G1 X44.642 Y19.936 E4.11599
G1 X38.165 Y13.457 E4.4207
G1 X37.935 Y13.248 E4.43103
G1 X37.666 Y13.05 E4.44214
G1 X37.384 Y12.883 E4.45304
G1 X37.368 Y12.876 E4.45362
G1 X37.084 Y12.74 E4.4641
G1 X36.767 Y12.626 E4.4753
G1 X36.446 Y12.549 E4.48628
G1 X36.121 Y12.499 E4.49722
G1 X35.788 Y12.485 E4.5083
G1 X35.456 Y12.499 E4.51936
G1 X35.126 Y12.55 E4.53046
G1 X34.806 Y12.631 E4.54144
G1 X34.496 Y12.742 E4.55239
G1 X34.194 Y12.885 E4.56351
G1 X33.91 Y13.055 E4.57452
G1 X33.644 Y13.253 E4.58554
G1 X33.416 Y13.459 E4.59576
G1 X13.381 Y33.495 E5.53817
G1 X13.172 Y33.726 E5.54853
G1 X12.976 Y33.991 E5.5595
G1 X12.807 Y34.274 E5.57046
G1 X12.663 Y34.576 E5.58159
G1 X12.55 Y34.894 E5.59281
G1 X12.47 Y35.222 E5.60404
G1 X12.411 Y35.694 E5.61986
G1 X12.411 Y36.038 E5.6313
G1 X12.444 Y36.368 E5.64234
G1 X12.512 Y36.705 E5.65377
G1 X12.661 Y37.156 E5.66957
G1 X12.808 Y37.465 E5.68095
G1 X12.98 Y37.751 E5.69205
G1 X13.179 Y38.016 E5.70307
G1 X13.383 Y38.243 E5.71322
G1 X19.868 Y44.728 E6.01826
G1 X20.249 Y44.994 E6.03371
G1 X20.713 Y45.172 E6.05024
G1 X21.284 Y45.229 E6.06933
G1 X21.775 Y45.14 E6.08592
G1 X22.211 Y44.948 E6.10177
G0 F6000 X22.009 Y44.6
G1 F1200 X22.258 Y44.415 E6.11209
G1 X44.297 Y22.377 E7.14871
G1 X44.521 Y22.09 E7.16082
G1 X44.68 Y21.73 E7.17391
G1 X44.747 Y21.34 E7.18707
G1 X44.701 Y20.878 E7.20251
G1 X44.526 Y20.452 E7.21783
G1 X44.338 Y20.198 E7.22834
G1 X37.889 Y13.747 E7.53173
G1 X37.681 Y13.558 E7.54108
G1 X37.445 Y13.384 E7.55083
G1 X37.196 Y13.236 E7.56046
G1 X36.93 Y13.11 E7.57025
G1 X36.652 Y13.01 E7.58008
G1 X36.369 Y12.942 E7.58976
G1 X36.082 Y12.898 E7.59942
G1 X35.788 Y12.885 E7.6092
G1 X35.495 Y12.898 E7.61896
G1 X35.206 Y12.942 E7.62868
G1 X34.923 Y13.014 E7.63839
G1 X34.649 Y13.112 E7.64807
G1 X34.383 Y13.238 E7.65786
G1 X34.133 Y13.388 E7.66756
G1 X33.898 Y13.563 E7.6773
G1 X33.692 Y13.749 E7.68654
G1 X13.671 Y33.771 E8.62829
G1 X13.482 Y33.98 E8.63766
G1 X13.309 Y34.213 E8.64731
G1 X13.16 Y34.463 E8.65699
G1 X13.033 Y34.729 E8.66679
G1 X12.934 Y35.009 E8.67667
G1 X12.864 Y35.295 E8.68646
G1 X12.811 Y35.719 E8.70068
G1 X12.811 Y36.018 E8.71062
G1 X12.84 Y36.309 E8.72035
G1 X12.899 Y36.602 E8.73029
G1 X13.033 Y37.007 E8.74448
G1 X13.161 Y37.276 E8.75439
G1 X13.312 Y37.527 E8.76413
G1 X13.488 Y37.762 E8.77389
G1 X13.673 Y37.968 E8.7831
G1 X20.126 Y44.42 E9.08661
G1 X20.438 Y44.638 E9.09927
G1 X20.806 Y44.779 E9.11237
G1 X21.268 Y44.825 E9.12782
G1 X21.657 Y44.755 E9.14096
G1 X22.009 Y44.6 E9.15376
G0 F6000 X21.806 Y44.252
;TYPE:WALL-OUTER
G1 F1200 X21.996 Y44.111 E9.16162
G1 X43.997 Y22.112 E10.19644
G1 X44.175 Y21.883 E10.20608
G1 X44.294 Y21.613 E10.2159
G1 X44.344 Y21.325 E10.22562
G1 X44.309 Y20.976 E10.23729
G1 X44.175 Y20.65 E10.24901
G1 X44.034 Y20.46 E10.25688
G1 X37.613 Y14.037 E10.55895
G1 X37.427 Y13.868 E10.56731
G1 X37.223 Y13.718 E10.57573
G1 X37.007 Y13.589 E10.5841
G1 X36.777 Y13.48 E10.59256
G1 X36.537 Y13.394 E10.60104
G1 X36.292 Y13.335 E10.60942
G1 X36.042 Y13.297 E10.61784
G1 X35.788 Y13.285 E10.62629
G1 X35.535 Y13.297 E10.63472
G1 X35.285 Y13.335 E10.64313
G1 X35.04 Y13.397 E10.65153
G1 X34.802 Y13.482 E10.65994
G1 X34.572 Y13.591 E10.6684
G1 X34.356 Y13.721 E10.67679
G1 X34.152 Y13.873 E10.68525
G1 X33.968 Y14.039 E10.69349
G1 X13.961 Y34.046 E11.63456
G1 X13.792 Y34.234 E11.64297
G1 X13.642 Y34.435 E11.65131
G1 X13.513 Y34.652 E11.65971
G1 X13.403 Y34.882 E11.66819
G1 X13.318 Y35.123 E11.67669
G1 X13.258 Y35.368 E11.68508
G1 X13.211 Y35.744 E11.69768
G1 X13.211 Y35.998 E11.70613
G1 X13.236 Y36.25 E11.71455
G1 X13.286 Y36.499 E11.723
G1 X13.405 Y36.858 E11.73558
G1 X13.514 Y37.087 E11.74401
G1 X13.644 Y37.304 E11.75243
G1 X13.797 Y37.508 E11.76091
G1 X13.963 Y37.692 E11.76915
G1 X20.384 Y44.112 E12.07115
G1 X20.627 Y44.282 E12.08101
G1 X20.899 Y44.386 E12.0907
G1 X21.252 Y44.421 E12.1025
G1 X21.539 Y44.37 E12.11219
G1 X21.806 Y44.252 E12.1219
G0 F6000 X22.027 Y44.632
G1 F3000 E6.1219
G0 F6000 X22.059 Y44.686
G0 X22.975 Y47.255
G0 X23.166 Y47.516
G0 X64.563 Y88.912
G0 X64.869 Y89.115
G0 X66.235 Y89.598
;TYPE:WALL-INNER
G1 F3000 E12.1219
G1 F1200 X66.67 Y89.407 E12.1377
G1 X66.98 Y89.178 E12.15052
G1 X74.507 Y81.65 E12.50459
G1 X74.78 Y81.264 E12.52032
G1 X74.971 Y80.723 E12.5394
G1 X75.008 Y80.219 E12.55621
G1 X74.918 Y79.727 E12.57284
G1 X74.681 Y79.231 E12.59113
G1 X74.449 Y78.945 E12.60337
G1 X73.48 Y77.978 E12.64891
G1 X73.102 Y77.71 E12.66432
G1 X72.653 Y77.537 E12.68032
G1 X72.231 Y77.474 E12.69451
G1 X71.673 Y77.529 E12.71316
G1 X71.142 Y77.747 E12.73225
G1 X70.824 Y77.982 E12.74541
G1 X63.298 Y85.508 E13.09941
G1 X63.034 Y85.881 E13.1146
G1 X62.854 Y86.346 E13.13119
G1 X62.794 Y86.833 E13.14751
G1 X62.856 Y87.331 E13.1642
G1 X63.069 Y87.845 E13.18271
G1 X63.303 Y88.162 E13.19581
G1 X64.333 Y89.193 E13.24428
G1 X64.781 Y89.492 E13.2622
G1 X65.26 Y89.649 E13.27896
G1 X65.744 Y89.687 E13.29511
G1 X66.235 Y89.598 E13.31171
G0 F6000 X66.117 Y89.213
G1 F1200 X66.468 Y89.059 E13.32446
G1 X66.718 Y88.874 E13.3348
G1 X74.2 Y81.391 E13.68675
G1 X74.421 Y81.078 E13.6995
G1 X74.576 Y80.64 E13.71495
G1 X74.605 Y80.241 E13.72826
G1 X74.534 Y79.851 E13.74144
G1 X74.341 Y79.446 E13.75636
G1 X74.152 Y79.214 E13.76632
G1 X73.221 Y78.285 E13.81006
G1 X72.911 Y78.065 E13.8227
G1 X72.55 Y77.926 E13.83557
G1 X72.221 Y77.877 E13.84663
G1 X71.771 Y77.921 E13.86167
G1 X71.34 Y78.098 E13.87717
G1 X71.086 Y78.286 E13.88768
G1 X63.605 Y85.767 E14.23956
G1 X63.389 Y86.072 E14.25199
G1 X63.245 Y86.444 E14.26526
G1 X63.197 Y86.833 E14.2783
G1 X63.246 Y87.228 E14.29153
G1 X63.42 Y87.647 E14.30662
G1 X63.607 Y87.901 E14.31711
G1 X64.588 Y88.882 E14.36326
G1 X64.958 Y89.129 E14.37805
G1 X65.339 Y89.254 E14.39139
G1 X65.724 Y89.284 E14.40423
G1 X66.117 Y89.213 E14.41752
G0 F6000 X66 Y88.828
;TYPE:WALL-OUTER
G1 F1200 X66.266 Y88.711 E14.42718
G1 X66.456 Y88.57 E14.43505
G1 X73.893 Y81.133 E14.78487
G1 X74.062 Y80.893 E14.79463
G1 X74.181 Y80.557 E14.80648
G1 X74.202 Y80.263 E14.81629
G1 X74.15 Y79.975 E14.82602
G1 X74 Y79.661 E14.8376
G1 X73.855 Y79.482 E14.84526
G1 X72.962 Y78.592 E14.88719
G1 X72.72 Y78.42 E14.89707
G1 X72.448 Y78.315 E14.90676
G1 X72.211 Y78.28 E14.91473
G1 X71.868 Y78.313 E14.92619
G1 X71.538 Y78.449 E14.93806
G1 X71.348 Y78.59 E14.94593
G1 X63.912 Y86.026 E15.2957
G1 X63.744 Y86.263 E15.30536
G1 X63.636 Y86.542 E15.31531
G1 X63.6 Y86.833 E15.32507
G1 X63.636 Y87.125 E15.33485
G1 X63.771 Y87.449 E15.34653
G1 X63.911 Y87.639 E15.35437
G1 X64.843 Y88.571 E15.39821
G1 X65.135 Y88.766 E15.40989
G1 X65.418 Y88.859 E15.4198
G1 X65.704 Y88.881 E15.42934
G1 X66 Y88.828 E15.43934
G0 F6000 X66.128 Y89.248
G1 F3000 E9.43934
G0 F6000 X66.146 Y89.308
G0 X67.475 Y91.78
G0 X118.619 Y142.929
G0 X119.426 Y143.569
;TYPE:WALL-INNER
G1 F3000 E15.43934
G1 F1200 X120.014 Y143.514 E15.45898
G1 X120.543 Y143.294 E15.47804
G1 X120.86 Y143.06 E15.49114
G1 X128.346 Y135.576 E15.84322
G1 X128.651 Y135.162 E15.86032
G1 X128.834 Y134.686 E15.87728
G1 X128.883 Y134.171 E15.89449
G1 X128.889 Y134.116 E15.89633
G1 X128.802 Y133.625 E15.91291
G1 X128.608 Y133.183 E15.92897
G1 X128.377 Y132.875 E15.94177
G1 X127.405 Y131.9 E15.98756
G1 X126.988 Y131.592 E16.0048
G1 X126.458 Y131.401 E16.02354
G1 X126.103 Y131.357 E16.03544
G1 X125.561 Y131.409 E16.05355
G1 X125.079 Y131.594 E16.07072
G1 X124.666 Y131.903 E16.08788
G1 X117.173 Y139.398 E16.44037
G1 X116.871 Y139.846 E16.45834
G1 X116.714 Y140.326 E16.47514
G1 X116.677 Y140.821 E16.49165
G1 X116.787 Y141.384 E16.51073
G1 X117.047 Y141.874 E16.52918
G1 X117.201 Y142.059 E16.53718
G1 X118.08 Y142.941 E16.5786
G1 X118.417 Y143.231 E16.59339
G1 X118.861 Y143.456 E16.60994
G1 X119.426 Y143.569 E16.62911
G0 F6000 X119.447 Y143.165
G1 F1200 X119.916 Y143.121 E16.64477
G1 X120.345 Y142.943 E16.66022
G1 X120.599 Y142.756 E16.67071
G1 X128.042 Y135.314 E17.02079
G1 X128.297 Y134.968 E17.03508
G1 X128.441 Y134.593 E17.04844
G1 X128.486 Y134.132 E17.06385
G1 X128.417 Y133.742 E17.07702
G1 X128.26 Y133.386 E17.08996
G1 X128.074 Y133.137 E17.1003
G1 X127.143 Y132.204 E17.14414
G1 X126.797 Y131.948 E17.15845
G1 X126.364 Y131.792 E17.17376
G1 X126.098 Y131.759 E17.18268
G1 X125.654 Y131.802 E17.19751
G1 X125.274 Y131.948 E17.21105
G1 X124.929 Y132.206 E17.22538
G1 X117.483 Y139.653 E17.57564
G1 X117.234 Y140.023 E17.59047
G1 X117.109 Y140.404 E17.60381
G1 X117.08 Y140.797 E17.61692
G1 X117.168 Y141.249 E17.63223
G1 X117.381 Y141.65 E17.64734
G1 X117.497 Y141.789 E17.65336
G1 X118.353 Y142.648 E17.69369
G1 X118.641 Y142.896 E17.70633
G1 X118.993 Y143.074 E17.71945
G1 X119.447 Y143.165 E17.73485
G0 F6000 X119.468 Y142.761
;TYPE:WALL-OUTER
G1 F1200 X119.819 Y142.728 E17.74658
G1 X120.147 Y142.592 E17.75839
G1 X120.337 Y142.452 E17.76624
G1 X127.738 Y135.052 E18.11433
G1 X127.943 Y134.774 E18.12582
G1 X128.048 Y134.5 E18.13558
G1 X128.083 Y134.147 E18.14738
G1 X128.032 Y133.859 E18.15711
G1 X127.913 Y133.589 E18.16692
G1 X127.771 Y133.4 E18.17478
G1 X126.881 Y132.508 E18.21669
G1 X126.606 Y132.304 E18.22808
G1 X126.27 Y132.183 E18.23996
G1 X126.093 Y132.161 E18.24589
G1 X125.747 Y132.195 E18.25746
G1 X125.469 Y132.302 E18.26736
G1 X125.191 Y132.509 E18.27889
G1 X117.793 Y139.908 E18.6269
G1 X117.597 Y140.2 E18.63859
G1 X117.504 Y140.482 E18.64847
G1 X117.483 Y140.773 E18.65817
G1 X117.549 Y141.114 E18.66972
G1 X117.715 Y141.426 E18.68148
G1 X117.793 Y141.52 E18.68554
G1 X118.625 Y142.355 E18.72475
G1 X118.865 Y142.561 E18.73527
G1 X119.125 Y142.692 E18.74495
G1 X119.468 Y142.761 E18.75659
G0 F6000 X119.445 Y143.2
G1 F3000 E12.75659
G0 F6000 X119.442 Y143.264
G0 X121.338 Y145.635
G0 X174.696 Y199.246
;TYPE:WALL-INNER
G1 F3000 E18.75659
G1 F1200 X174.934 Y199.74 E18.77482
G1 X175.163 Y200.025 E18.78698
G1 X181.598 Y206.458 E19.08962
G1 X181.944 Y206.756 E19.10481
G1 X182.226 Y206.944 E19.11608
G1 X182.519 Y207.102 E19.12715
G1 X182.828 Y207.229 E19.13826
G1 X183.144 Y207.326 E19.14926
G1 X183.471 Y207.389 E19.16033
G1 X183.799 Y207.422 E19.1713
G1 X184.134 Y207.422 E19.18244
G1 X184.461 Y207.389 E19.19337
G1 X184.79 Y207.324 E19.20453
