;FLAVOR:Marlin
;TIME:5652
;Filament used: 2.96193m
;Layer height: 0.2
;MINX:10.173
;MINY:10.724
;MINZ:0.2
;MAXX:209.852
;MAXY:210.405
;MAXZ:4
;Generated with Cura_SteamEngine 4.9.1
M140 S70
M105
M190 S70
M104 S220
M105
M109 S220
M82 ;absolute extrusion mode
; Ender 3 Custom Start G-code
G92 E0 ; Reset Extruder
G28 ; Home all axes
G1 Z2.0 F3000 ; Move Z Axis up little to prevent scratching of Heat Bed
G1 X0.1 Y20 Z0.3 F5000.0 ; Move to start position
G1 X0.1 Y200.0 Z0.3 F1500.0 E15 ; Draw the first line
G1 X0.4 Y200.0 Z0.3 F5000.0 ; Move to side a little
G1 X0.4 Y20 Z0.3 F1500.0 E30 ; Draw the second line
G92 E0 ; Reset Extruder
G1 Z2.0 F3000 ; Move Z Axis up little to prevent scratching of Heat Bed
G1 X5 Y20 Z0.3 F5000.0 ; Move over to prevent blob squish
G92 E0
G92 E0
G1 F3000 E-6
;LAYER_COUNT:20
;LAYER:0
M107
;MESH:midpiece-usbc.stl
G0 F6000 X66.56 Y90.141 Z0.2
;TYPE:WALL-INNER
G1 F3000 E0
G1 F1200 X66.955 Y89.913 E0.01517
G1 X67.127 Y89.773 E0.02255
G1 X74.596 Y82.306 E0.37382
G1 X74.903 Y81.89 E0.39101
G1 X75.086 Y81.413 E0.40801
G1 X75.143 Y80.833 E0.42739
G1 X75.025 Y80.253 E0.44708
G1 X74.763 Y79.767 E0.46544
G1 X74.576 Y79.547 E0.47504
G1 X73.612 Y78.586 E0.52032
G1 X73.238 Y78.322 E0.53554
G1 X72.785 Y78.147 E0.55169
G1 X72.377 Y78.085 E0.56542
G1 X71.88 Y78.121 E0.58199
G1 X71.34 Y78.317 E0.6011
G1 X70.918 Y78.628 E0.61854
G1 X63.431 Y86.118 E0.97077
G1 X63.162 Y86.5 E0.98631
G1 X62.986 Y86.963 E1.00279
G1 X62.926 Y87.527 E1.02165
G1 X63.039 Y88.112 E1.04147
G1 X63.306 Y88.615 E1.06041
G1 X63.498 Y88.834 E1.0701
G1 X64.466 Y89.801 E1.1156
G1 X64.923 Y90.105 E1.13386
G1 X65.484 Y90.278 E1.15339
G1 X66.062 Y90.279 E1.17261
G1 X66.56 Y90.141 E1.1898
G0 F6000 X66.404 Y89.769
G1 F1200 X66.727 Y89.583 E1.20219
G1 X66.858 Y89.476 E1.20782
G1 X74.292 Y82.044 E1.55745
G1 X74.549 Y81.696 E1.57183
G1 X74.693 Y81.32 E1.58523
G1 X74.739 Y80.854 E1.6008
G1 X74.645 Y80.391 E1.61651
G1 X74.431 Y79.994 E1.63151
G1 X74.282 Y79.819 E1.63916
G1 X73.354 Y78.893 E1.68276
G1 X73.048 Y78.677 E1.69522
G1 X72.682 Y78.536 E1.70827
G1 X72.361 Y78.487 E1.71907
G1 X71.964 Y78.516 E1.73231
G1 X71.531 Y78.673 E1.74762
G1 X71.18 Y78.932 E1.76213
G1 X63.738 Y86.377 E2.11225
G1 X63.518 Y86.689 E2.12495
G1 X63.378 Y87.057 E2.13805
G1 X63.33 Y87.51 E2.1532
G1 X63.42 Y87.977 E2.16901
G1 X63.638 Y88.387 E2.18446
G1 X63.79 Y88.561 E2.19214
G1 X64.721 Y89.49 E2.23589
G1 X65.096 Y89.74 E2.25088
G1 X65.545 Y89.878 E2.2665
G1 X66.008 Y89.879 E2.2819
G1 X66.404 Y89.769 E2.29557
G0 F6000 X66.248 Y89.397
;TYPE:WALL-OUTER
G1 F1200 X66.499 Y89.253 E2.3052
G1 X66.589 Y89.179 E2.30907
G1 X73.988 Y81.782 E2.65705
G1 X74.195 Y81.502 E2.66863
G1 X74.3 Y81.227 E2.67842
G1 X74.335 Y80.874 E2.69022
G1 X74.265 Y80.529 E2.70193
G1 X74.099 Y80.221 E2.71357
G1 X73.988 Y80.091 E2.71925
G1 X73.095 Y79.2 E2.76121
G1 X72.858 Y79.032 E2.77087
G1 X72.579 Y78.925 E2.78081
G1 X72.345 Y78.889 E2.78868
G1 X72.048 Y78.911 E2.79859
G1 X71.722 Y79.029 E2.81012
G1 X71.442 Y79.236 E2.8217
G1 X64.045 Y86.635 E3.16968
G1 X63.874 Y86.878 E3.17956
G1 X63.77 Y87.151 E3.18928
G1 X63.734 Y87.493 E3.20072
G1 X63.801 Y87.842 E3.21254
G1 X63.969 Y88.158 E3.22444
G1 X64.082 Y88.287 E3.23015
G1 X64.976 Y89.179 E3.27215
G1 X65.269 Y89.375 E3.28387
G1 X65.605 Y89.478 E3.29556
G1 X65.954 Y89.479 E3.30717
G1 X66.248 Y89.397 E3.31732
G0 F6000 X66.417 Y89.802
G1 F3000 E-2.68268
G0 F6000 X66.442 Y89.861
G0 X65.54 Y89.917
G0 X65.079 Y89.776
G0 X64.696 Y89.52
G0 X23.286 Y48.107
G0 X23.146 Y47.897
G0 X22.187 Y45.645
;TYPE:WALL-INNER
G1 F3000 E3.31732
G1 F1200 X22.64 Y45.34 E3.33549
G1 X44.736 Y23.247 E4.37474
G1 X45.006 Y22.896 E4.38947
G1 X45.227 Y22.364 E4.40863
G1 X45.285 Y21.775 E4.42832
G1 X45.172 Y21.205 E4.44764
G1 X44.911 Y20.71 E4.46626
G1 X44.716 Y20.485 E4.47616
G1 X38.298 Y14.066 E4.77807
G1 X38.068 Y13.859 E4.78836
G1 X37.803 Y13.66 E4.79938
G1 X37.516 Y13.491 E4.81046
G1 X37.217 Y13.349 E4.82147
G1 X36.9 Y13.235 E4.83267
G1 X36.59 Y13.162 E4.84326
G1 X36.568 Y13.156 E4.84402
G1 X36.107 Y13.099 E4.85947
G1 X35.917 Y13.094 E4.86579
G1 X35.58 Y13.11 E4.87702
G1 X35.107 Y13.192 E4.89298
G1 X34.784 Y13.292 E4.90423
G1 X34.476 Y13.418 E4.9153
G1 X34.181 Y13.576 E4.92643
G1 X33.904 Y13.762 E4.93752
G1 X33.659 Y13.965 E4.94811
G1 X33.543 Y14.074 E4.9534
G1 X13.514 Y34.104 E5.89553
G1 X13.305 Y34.335 E5.90589
G1 X13.109 Y34.6 E5.91685
G1 X12.94 Y34.883 E5.92781
G1 X12.796 Y35.185 E5.93894
G1 X12.683 Y35.505 E5.95023
G1 X12.603 Y35.831 E5.96139
G1 X12.544 Y36.303 E5.97722
G1 X12.544 Y36.647 E5.98866
G1 X12.577 Y36.979 E5.99975
G1 X12.644 Y37.305 E6.01082
G1 X12.738 Y37.619 E6.02172
G1 X12.865 Y37.925 E6.03274
G1 X13.024 Y38.222 E6.04395
G1 X13.21 Y38.498 E6.05502
G1 X13.412 Y38.742 E6.06555
G1 X13.522 Y38.859 E6.0709
G1 X20.011 Y45.347 E6.37609
G1 X20.469 Y45.649 E6.39434
G1 X21.029 Y45.818 E6.4138
G1 X21.624 Y45.818 E6.43359
G1 X22.187 Y45.645 E6.45318
G0 F6000 X22.013 Y45.28
G1 F1200 X22.384 Y45.03 E6.46806
G1 X44.435 Y22.983 E7.50517
G1 X44.657 Y22.694 E7.51729
G1 X44.835 Y22.266 E7.53271
G1 X44.881 Y21.795 E7.54845
G1 X44.791 Y21.34 E7.56388
G1 X44.578 Y20.937 E7.57904
G1 X44.423 Y20.757 E7.58694
G1 X38.022 Y14.356 E7.88802
G1 X37.814 Y14.168 E7.89735
G1 X37.581 Y13.994 E7.90702
G1 X37.328 Y13.845 E7.91679
G1 X37.063 Y13.719 E7.92654
G1 X36.785 Y13.619 E7.93637
G1 X36.497 Y13.55 E7.94622
G1 X36.077 Y13.498 E7.9603
G1 X35.921 Y13.494 E7.96549
G1 X35.624 Y13.508 E7.97538
G1 X35.201 Y13.582 E7.98966
G1 X34.919 Y13.669 E7.99947
G1 X34.647 Y13.78 E8.00925
G1 X34.388 Y13.919 E8.01902
G1 X34.144 Y14.083 E8.0288
G1 X33.924 Y14.265 E8.0383
G1 X33.822 Y14.361 E8.04296
G1 X13.804 Y34.38 E8.98456
G1 X13.615 Y34.589 E8.99394
G1 X13.442 Y34.822 E9.00359
G1 X13.293 Y35.072 E9.01327
G1 X13.166 Y35.338 E9.02307
G1 X13.067 Y35.619 E9.03298
G1 X12.997 Y35.904 E9.04274
G1 X12.944 Y36.328 E9.05696
G1 X12.944 Y36.627 E9.0669
G1 X12.973 Y36.919 E9.07666
G1 X13.032 Y37.207 E9.08644
G1 X13.115 Y37.484 E9.09606
G1 X13.227 Y37.753 E9.10575
G1 X13.367 Y38.015 E9.11563
G1 X13.531 Y38.258 E9.12538
G1 X13.712 Y38.477 E9.13483
G1 X13.809 Y38.58 E9.13953
G1 X20.265 Y45.035 E9.44318
G1 X20.641 Y45.283 E9.45816
G1 X21.088 Y45.418 E9.47369
G1 X21.564 Y45.418 E9.48952
G1 X22.013 Y45.28 E9.50515
G0 F6000 X21.839 Y44.915
;TYPE:WALL-OUTER
G1 F1200 X22.129 Y44.72 E9.51677
G1 X44.134 Y22.718 E10.55175
G1 X44.308 Y22.492 E10.56123
G1 X44.443 Y22.168 E10.57291
G1 X44.477 Y21.815 E10.5847
G1 X44.41 Y21.475 E10.59623
G1 X44.246 Y21.164 E10.60792
G1 X44.13 Y21.03 E10.61382
G1 X37.746 Y14.646 E10.9141
G1 X37.56 Y14.477 E10.92246
G1 X37.359 Y14.328 E10.93078
G1 X37.14 Y14.198 E10.93925
G1 X36.91 Y14.089 E10.94772
G1 X36.67 Y14.003 E10.9562
G1 X36.425 Y13.944 E10.96458
G1 X36.047 Y13.897 E10.97725
G1 X35.925 Y13.894 E10.98131
G1 X35.668 Y13.906 E10.98986
G1 X35.295 Y13.972 E11.00246
G1 X35.053 Y14.046 E11.01088
G1 X34.818 Y14.142 E11.01932
G1 X34.595 Y14.262 E11.02775
G1 X34.384 Y14.404 E11.03621
G1 X34.189 Y14.565 E11.04462
G1 X34.101 Y14.648 E11.04864
G1 X14.094 Y34.655 E11.98971
G1 X13.925 Y34.843 E11.99812
G1 X13.775 Y35.044 E12.00646
G1 X13.646 Y35.261 E12.01485
G1 X13.536 Y35.491 E12.02333
G1 X13.451 Y35.733 E12.03186
G1 X13.391 Y35.977 E12.04022
G1 X13.344 Y36.353 E12.05282
G1 X13.344 Y36.607 E12.06127
G1 X13.369 Y36.859 E12.0697
G1 X13.42 Y37.109 E12.07818
G1 X13.492 Y37.349 E12.08652
G1 X13.589 Y37.581 E12.09488
G1 X13.71 Y37.808 E12.10343
G1 X13.852 Y38.018 E12.11187
G1 X14.012 Y38.212 E12.12023
G1 X14.096 Y38.301 E12.1243
G1 X20.519 Y44.723 E12.4264
G1 X20.813 Y44.917 E12.43811
G1 X21.147 Y45.018 E12.44972
G1 X21.504 Y45.018 E12.46159
G1 X21.839 Y44.915 E12.47325
G0 F6000 X22.028 Y45.312
G1 F3000 E6.47325
G0 F6000 X22.056 Y45.37
G0 X45.455 Y23.792
G0 X45.85 Y23.556
G0 X46.323 Y23.438
G0 X46.793 Y23.463
G0 X47.247 Y23.622
G0 X47.567 Y23.848
G0 X60.794 Y37.081
G0 X66.082 Y35.95
G0 X88.003 Y14.05
G0 X88.788 Y13.631
G0 X89.655 Y13.458
G0 X90.538 Y13.544
G0 X91.357 Y13.883
G0 X91.926 Y14.322
G0 X98.535 Y20.976
G0 X98.732 Y21.393
G0 X98.8 Y21.793
G0 X98.772 Y22.197
G0 X97.886 Y26.663
G0 X100.68 Y28.549
;TYPE:WALL-INNER
G1 F3000 E12.47325
G1 F1200 X101.249 Y28.439 E12.49252
G1 X101.684 Y28.222 E12.50869
G1 X101.923 Y28.034 E12.5188
G1 X102.67 Y27.291 E12.55385
G1 X102.975 Y26.877 E12.57095
G1 X103.158 Y26.4 E12.58794
G1 X103.215 Y25.831 E12.60696
G1 X103.126 Y25.338 E12.62363
G1 X102.929 Y24.892 E12.63984
G1 X102.663 Y24.552 E12.6542
G1 X101.681 Y23.569 E12.70041
G1 X101.293 Y23.298 E12.71615
G1 X100.764 Y23.109 E12.73484
G1 X100.335 Y23.069 E12.74917
G1 X99.772 Y23.153 E12.7681
G1 X99.259 Y23.4 E12.78704
G1 X98.978 Y23.629 E12.7991
G1 X98.225 Y24.382 E12.83451
G1 X97.923 Y24.84 E12.85276
G1 X97.756 Y25.39 E12.87188
G1 X97.745 Y25.907 E12.88908
G1 X97.887 Y26.471 E12.90842
G1 X98.161 Y26.92 E12.92592
G1 X98.261 Y27.042 E12.93116
G1 X99.215 Y27.997 E12.97606
G1 X99.567 Y28.27 E12.99088
G1 X100.099 Y28.49 E13.01002
G1 X100.68 Y28.549 E13.02945
G0 F6000 X100.662 Y28.145
G1 F1200 X101.119 Y28.057 E13.04493
G1 X101.469 Y27.882 E13.05794
G1 X101.657 Y27.734 E13.0659
G1 X102.366 Y27.029 E13.09916
G1 X102.621 Y26.683 E13.11345
G1 X102.765 Y26.307 E13.12684
G1 X102.811 Y25.847 E13.14222
G1 X102.741 Y25.456 E13.15543
G1 X102.583 Y25.099 E13.16841
G1 X102.363 Y24.817 E13.18031
G1 X101.423 Y23.877 E13.22453
G1 X101.108 Y23.657 E13.2373
G1 X100.677 Y23.503 E13.25253
G1 X100.346 Y23.472 E13.26358
G1 X99.891 Y23.54 E13.27889
G1 X99.475 Y23.74 E13.29424
G1 X99.246 Y23.926 E13.30405
G1 X98.537 Y24.636 E13.33742
G1 X98.289 Y25.012 E13.3524
G1 X98.155 Y25.454 E13.36777
G1 X98.146 Y25.862 E13.38134
G1 X98.26 Y26.314 E13.39684
G1 X98.488 Y26.688 E13.41141
G1 X98.558 Y26.773 E13.41507
G1 X99.48 Y27.696 E13.45847
G1 X99.77 Y27.921 E13.47067
G1 X100.198 Y28.098 E13.48608
G1 X100.662 Y28.145 E13.50159
G0 F6000 X100.644 Y27.741
;TYPE:WALL-OUTER
G1 F1200 X100.989 Y27.675 E13.51327
G1 X101.254 Y27.542 E13.52314
G1 X101.392 Y27.434 E13.52896
G1 X102.062 Y26.767 E13.56041
G1 X102.267 Y26.489 E13.5719
G1 X102.372 Y26.214 E13.58169
G1 X102.407 Y25.862 E13.59345
G1 X102.356 Y25.574 E13.60318
G1 X102.237 Y25.306 E13.61293
G1 X102.063 Y25.082 E13.62237
G1 X101.165 Y24.185 E13.66458
G1 X100.923 Y24.016 E13.6744
G1 X100.59 Y23.897 E13.68616
G1 X100.357 Y23.875 E13.69395
G1 X100.01 Y23.927 E13.70562
G1 X99.69 Y24.08 E13.71741
G1 X99.514 Y24.223 E13.72496
G1 X98.849 Y24.89 E13.75628
G1 X98.655 Y25.184 E13.768
G1 X98.554 Y25.518 E13.7796
G1 X98.547 Y25.817 E13.78955
G1 X98.633 Y26.158 E13.80125
G1 X98.814 Y26.455 E13.81282
G1 X98.854 Y26.503 E13.81489
G1 X99.745 Y27.395 E13.85683
G1 X99.973 Y27.572 E13.86643
G1 X100.297 Y27.706 E13.87809
G1 X100.644 Y27.741 E13.88969
G0 F6000 X100.663 Y28.18
G1 F3000 E7.88969
G0 F6000 X100.666 Y28.244
G0 X104.408 Y26.82
G0 X179.357 Y101.798
G0 X179.554 Y102.215
G0 X179.622 Y102.615
G0 X179.594 Y103.019
G0 X179.431 Y103.473
G0 X179.207 Y103.789
G0 X177.558 Y105.44
G0 X180.389 Y109.092
;TYPE:WALL-INNER
G1 F3000 E13.88969
G1 F1200 X180.921 Y109.313 E13.90885
G1 X181.506 Y109.371 E13.9284
G1 X182.076 Y109.258 E13.94773
G1 X182.506 Y109.044 E13.9637
G1 X182.745 Y108.856 E13.97382
G1 X183.492 Y108.113 E14.00886
G1 X183.797 Y107.699 E14.02596
G1 X183.98 Y107.222 E14.04296
G1 X184.037 Y106.653 E14.06198
G1 X183.948 Y106.16 E14.07864
G1 X183.751 Y105.714 E14.09486
G1 X183.485 Y105.374 E14.10921
G1 X182.503 Y104.391 E14.15543
G1 X182.115 Y104.12 E14.17117
G1 X181.588 Y103.934 E14.18976
G1 X181.159 Y103.891 E14.2041
G1 X180.594 Y103.975 E14.22309
G1 X180.081 Y104.222 E14.24203
G1 X179.8 Y104.451 E14.25409
G1 X179.047 Y105.204 E14.28951
G1 X178.751 Y105.654 E14.30742
G1 X178.595 Y106.125 E14.32392
G1 X178.56 Y106.613 E14.3402
G1 X178.642 Y107.094 E14.35643
G1 X178.837 Y107.539 E14.37259
G1 X179.07 Y107.849 E14.38548
G1 X180.036 Y108.817 E14.43097
G1 X180.389 Y109.092 E14.44585
G0 F6000 X180.592 Y108.743
G1 F1200 X181.02 Y108.921 E14.46127
G1 X181.486 Y108.967 E14.47684
G1 X181.946 Y108.876 E14.49244
G1 X182.291 Y108.704 E14.50526
G1 X182.479 Y108.556 E14.51322
G1 X183.188 Y107.851 E14.54647
G1 X183.443 Y107.505 E14.56077
G1 X183.587 Y107.129 E14.57416
G1 X183.633 Y106.669 E14.58954
G1 X183.563 Y106.278 E14.60275
G1 X183.405 Y105.921 E14.61573
G1 X183.185 Y105.639 E14.62763
G1 X182.245 Y104.699 E14.67184
G1 X181.93 Y104.479 E14.68462
G1 X181.5 Y104.327 E14.69979
G1 X181.169 Y104.294 E14.71086
G1 X180.713 Y104.362 E14.72619
G1 X180.297 Y104.562 E14.74154
G1 X180.068 Y104.748 E14.75136
G1 X179.359 Y105.458 E14.78473
G1 X179.114 Y105.83 E14.79954
G1 X178.99 Y106.204 E14.81265
G1 X178.962 Y106.593 E14.82562
G1 X179.028 Y106.978 E14.83861
G1 X179.185 Y107.336 E14.85161
G1 X179.373 Y107.586 E14.86202
G1 X180.302 Y108.517 E14.90576
G1 X180.592 Y108.743 E14.91799
G0 F6000 X180.795 Y108.394
;TYPE:WALL-OUTER
G1 F1200 X181.119 Y108.529 E14.92966
G1 X181.466 Y108.563 E14.94126
G1 X181.816 Y108.494 E14.95313
G1 X182.076 Y108.364 E14.96279
G1 X182.214 Y108.256 E14.96862
G1 X182.884 Y107.589 E15.00007
G1 X183.089 Y107.311 E15.01156
G1 X183.194 Y107.036 E15.02135
G1 X183.229 Y106.684 E15.03311
G1 X183.178 Y106.396 E15.04284
G1 X183.059 Y106.128 E15.05259
G1 X182.885 Y105.904 E15.06203
G1 X181.987 Y105.007 E15.10424
G1 X181.745 Y104.838 E15.11406
G1 X181.412 Y104.72 E15.12581
G1 X181.179 Y104.697 E15.1336
G1 X180.832 Y104.749 E15.14527
G1 X180.512 Y104.902 E15.15706
G1 X180.336 Y105.045 E15.16461
G1 X179.671 Y105.712 E15.19593
G1 X179.477 Y106.006 E15.20765
G1 X179.385 Y106.283 E15.21736
G1 X179.364 Y106.573 E15.22703
G1 X179.414 Y106.862 E15.23678
G1 X179.533 Y107.133 E15.24663
G1 X179.676 Y107.324 E15.25456
G1 X180.567 Y108.217 E15.29652
G1 X180.795 Y108.394 E15.30612
G0 F6000 X180.574 Y108.774
G1 F3000 E9.30612
G0 F6000 X180.542 Y108.829
G0 X179.413 Y113.443
G0 X184.214 Y108.657
G0 X184.608 Y108.423
G0 X185.067 Y108.31
G0 X185.553 Y108.333
G0 X186.003 Y108.495
G0 X186.321 Y108.72
G0 X193.054 Y115.497
G0 X193.473 Y116.28
G0 X193.648 Y117.148
G0 X193.56 Y118.029
G0 X193.224 Y118.851
G0 X192.781 Y119.42
G0 X168.888 Y145.055
G0 X196.723 Y173.003
G0 X196.915 Y173.264
G0 X197.094 Y173.699
G0 X197.141 Y174.171
G0 X197.073 Y174.57
G0 X196.91 Y174.94
G0 X196.685 Y175.232
G0 X174.501 Y197.387
G0 X174.098 Y197.602
G0 X173.628 Y197.695
G0 X173.148 Y197.648
G0 X172.77 Y197.501
G0 X119.256 Y144.138
;TYPE:WALL-INNER
G1 F3000 E15.30612
G1 F1200 X119.754 Y144.177 E15.32273
G1 X120.262 Y144.089 E15.33988
G1 X120.76 Y143.85 E15.35825
G1 X121.046 Y143.619 E15.37048
G1 X128.471 Y136.192 E15.71978
G1 X128.746 Y135.84 E15.73464
G1 X128.965 Y135.305 E15.75386
G1 X129.024 Y134.724 E15.77329
G1 X128.935 Y134.235 E15.78982
G1 X128.742 Y133.792 E15.80589
G1 X128.51 Y133.483 E15.81874
G1 X127.538 Y132.509 E15.86451
G1 X127.115 Y132.197 E15.88199
G1 X126.589 Y132.009 E15.90057
G1 X126.237 Y131.966 E15.91236
G1 X125.694 Y132.018 E15.93051
G1 X125.212 Y132.203 E15.94768
G1 X124.799 Y132.512 E15.96483
G1 X117.304 Y140.007 E16.31738
G1 X117.004 Y140.456 E16.33534
G1 X116.847 Y140.935 E16.3521
G1 X116.81 Y141.43 E16.36861
G1 X116.918 Y141.983 E16.38735
G1 X117.138 Y142.421 E16.40365
G1 X117.327 Y142.663 E16.41387
G1 X118.339 Y143.674 E16.46144
G1 X118.725 Y143.946 E16.47715
G1 X119.256 Y144.138 E16.49593
G0 F6000 X119.341 Y143.743
G1 F1200 X119.735 Y143.774 E16.50908
G1 X120.139 Y143.704 E16.52271
G1 X120.545 Y143.51 E16.53768
G1 X120.778 Y143.321 E16.54766
G1 X128.171 Y135.926 E16.89545
G1 X128.397 Y135.637 E16.90765
G1 X128.573 Y135.207 E16.9231
G1 X128.62 Y134.74 E16.93872
G1 X128.55 Y134.352 E16.95183
G1 X128.394 Y133.995 E16.96479
G1 X128.207 Y133.746 E16.97514
G1 X127.276 Y132.813 E17.01898
G1 X126.925 Y132.554 E17.03349
G1 X126.496 Y132.401 E17.04864
G1 X126.231 Y132.368 E17.05752
G1 X125.787 Y132.411 E17.07236
G1 X125.407 Y132.557 E17.0859
G1 X125.062 Y132.815 E17.10023
G1 X117.615 Y140.262 E17.45051
G1 X117.367 Y140.633 E17.46535
G1 X117.242 Y141.013 E17.47866
G1 X117.213 Y141.406 E17.49176
G1 X117.3 Y141.853 E17.50691
G1 X117.477 Y142.206 E17.52004
G1 X117.627 Y142.397 E17.52812
G1 X118.597 Y143.367 E17.57375
G1 X118.911 Y143.588 E17.58652
G1 X119.341 Y143.743 E17.60172
